topics/special-relativity/Latex/images/svg/Layout-figure3.svg

<?xml version="1.0" encoding="UTF-8"?>
<svg xmlns="http://www.w3.org/2000/svg" xmlns:xlink="http://www.w3.org/1999/xlink" width="170.676pt" height="156.703pt" viewBox="0 0 170.676 156.703" version="1.1">
<defs>
<g>
<symbol overflow="visible" id="glyph0-0">
<path style="stroke:none;" d=""/>
</symbol>
<symbol overflow="visible" id="glyph0-1">
<path style="stroke:none;" d="M 4.84375 -3.796875 C 4.890625 -3.9375 4.890625 -3.953125 4.890625 -4.03125 C 4.890625 -4.203125 4.75 -4.296875 4.59375 -4.296875 C 4.5 -4.296875 4.34375 -4.234375 4.25 -4.09375 C 4.234375 -4.03125 4.140625 -3.734375 4.109375 -3.546875 C 4.03125 -3.296875 3.96875 -3.015625 3.90625 -2.75 L 3.453125 -0.953125 C 3.421875 -0.8125 2.984375 -0.109375 2.328125 -0.109375 C 1.828125 -0.109375 1.71875 -0.546875 1.71875 -0.921875 C 1.71875 -1.375 1.890625 -2 2.21875 -2.875 C 2.375 -3.28125 2.421875 -3.390625 2.421875 -3.59375 C 2.421875 -4.03125 2.109375 -4.40625 1.609375 -4.40625 C 0.65625 -4.40625 0.296875 -2.953125 0.296875 -2.875 C 0.296875 -2.765625 0.390625 -2.765625 0.40625 -2.765625 C 0.515625 -2.765625 0.515625 -2.796875 0.5625 -2.953125 C 0.84375 -3.890625 1.234375 -4.1875 1.578125 -4.1875 C 1.65625 -4.1875 1.828125 -4.1875 1.828125 -3.875 C 1.828125 -3.625 1.71875 -3.359375 1.65625 -3.171875 C 1.25 -2.109375 1.078125 -1.546875 1.078125 -1.078125 C 1.078125 -0.1875 1.703125 0.109375 2.296875 0.109375 C 2.6875 0.109375 3.015625 -0.0625 3.296875 -0.34375 C 3.171875 0.171875 3.046875 0.671875 2.65625 1.203125 C 2.390625 1.53125 2.015625 1.828125 1.5625 1.828125 C 1.421875 1.828125 0.96875 1.796875 0.796875 1.40625 C 0.953125 1.40625 1.09375 1.40625 1.21875 1.28125 C 1.328125 1.203125 1.421875 1.0625 1.421875 0.875 C 1.421875 0.5625 1.15625 0.53125 1.0625 0.53125 C 0.828125 0.53125 0.5 0.6875 0.5 1.171875 C 0.5 1.671875 0.9375 2.046875 1.5625 2.046875 C 2.578125 2.046875 3.609375 1.140625 3.890625 0.015625 Z M 4.84375 -3.796875 "/>
</symbol>
<symbol overflow="visible" id="glyph0-2">
<path style="stroke:none;" d="M 1.328125 -0.828125 C 1.859375 -1.40625 2.15625 -1.65625 2.515625 -1.96875 C 2.515625 -1.96875 3.125 -2.5 3.484375 -2.859375 C 4.4375 -3.78125 4.65625 -4.265625 4.65625 -4.3125 C 4.65625 -4.40625 4.5625 -4.40625 4.546875 -4.40625 C 4.46875 -4.40625 4.453125 -4.390625 4.390625 -4.296875 C 4.09375 -3.8125 3.890625 -3.65625 3.65625 -3.65625 C 3.40625 -3.65625 3.296875 -3.8125 3.140625 -3.984375 C 2.953125 -4.203125 2.78125 -4.40625 2.453125 -4.40625 C 1.703125 -4.40625 1.25 -3.484375 1.25 -3.265625 C 1.25 -3.21875 1.28125 -3.15625 1.359375 -3.15625 C 1.453125 -3.15625 1.46875 -3.203125 1.5 -3.265625 C 1.6875 -3.734375 2.265625 -3.734375 2.34375 -3.734375 C 2.546875 -3.734375 2.734375 -3.671875 2.96875 -3.59375 C 3.375 -3.4375 3.484375 -3.4375 3.734375 -3.4375 C 3.375 -3.015625 2.546875 -2.296875 2.359375 -2.140625 L 1.453125 -1.296875 C 0.78125 -0.625 0.421875 -0.0625 0.421875 0.015625 C 0.421875 0.109375 0.53125 0.109375 0.546875 0.109375 C 0.625 0.109375 0.640625 0.09375 0.703125 -0.015625 C 0.9375 -0.375 1.234375 -0.640625 1.5625 -0.640625 C 1.78125 -0.640625 1.890625 -0.546875 2.140625 -0.265625 C 2.296875 -0.046875 2.484375 0.109375 2.765625 0.109375 C 3.765625 0.109375 4.34375 -1.15625 4.34375 -1.421875 C 4.34375 -1.46875 4.296875 -1.53125 4.21875 -1.53125 C 4.125 -1.53125 4.109375 -1.46875 4.078125 -1.390625 C 3.84375 -0.75 3.203125 -0.5625 2.875 -0.5625 C 2.6875 -0.5625 2.5 -0.625 2.296875 -0.6875 C 1.953125 -0.8125 1.796875 -0.859375 1.59375 -0.859375 C 1.578125 -0.859375 1.421875 -0.859375 1.328125 -0.828125 Z M 1.328125 -0.828125 "/>
</symbol>
<symbol overflow="visible" id="glyph0-3">
<path style="stroke:none;" d="M 5.140625 -6.8125 C 5.140625 -6.8125 5.140625 -6.921875 5.015625 -6.921875 C 4.859375 -6.921875 3.921875 -6.828125 3.75 -6.8125 C 3.671875 -6.796875 3.609375 -6.75 3.609375 -6.625 C 3.609375 -6.5 3.703125 -6.5 3.84375 -6.5 C 4.328125 -6.5 4.34375 -6.4375 4.34375 -6.328125 L 4.3125 -6.125 L 3.71875 -3.765625 C 3.53125 -4.140625 3.25 -4.40625 2.796875 -4.40625 C 1.640625 -4.40625 0.40625 -2.9375 0.40625 -1.484375 C 0.40625 -0.546875 0.953125 0.109375 1.71875 0.109375 C 1.921875 0.109375 2.421875 0.0625 3.015625 -0.640625 C 3.09375 -0.21875 3.453125 0.109375 3.921875 0.109375 C 4.28125 0.109375 4.5 -0.125 4.671875 -0.4375 C 4.828125 -0.796875 4.96875 -1.40625 4.96875 -1.421875 C 4.96875 -1.53125 4.875 -1.53125 4.84375 -1.53125 C 4.75 -1.53125 4.734375 -1.484375 4.703125 -1.34375 C 4.53125 -0.703125 4.359375 -0.109375 3.953125 -0.109375 C 3.671875 -0.109375 3.65625 -0.375 3.65625 -0.5625 C 3.65625 -0.8125 3.671875 -0.875 3.703125 -1.046875 Z M 3.078125 -1.1875 C 3.015625 -1 3.015625 -0.984375 2.875 -0.8125 C 2.4375 -0.265625 2.03125 -0.109375 1.75 -0.109375 C 1.25 -0.109375 1.109375 -0.65625 1.109375 -1.046875 C 1.109375 -1.546875 1.421875 -2.765625 1.65625 -3.234375 C 1.96875 -3.8125 2.40625 -4.1875 2.8125 -4.1875 C 3.453125 -4.1875 3.59375 -3.375 3.59375 -3.3125 C 3.59375 -3.25 3.578125 -3.1875 3.5625 -3.140625 Z M 3.078125 -1.1875 "/>
</symbol>
<symbol overflow="visible" id="glyph0-4">
<path style="stroke:none;" d="M 0.875 -0.59375 C 0.84375 -0.4375 0.78125 -0.203125 0.78125 -0.15625 C 0.78125 0.015625 0.921875 0.109375 1.078125 0.109375 C 1.203125 0.109375 1.375 0.03125 1.453125 -0.171875 C 1.46875 -0.203125 1.796875 -1.5625 1.84375 -1.75 C 1.921875 -2.078125 2.109375 -2.765625 2.15625 -3.046875 C 2.203125 -3.171875 2.484375 -3.640625 2.71875 -3.859375 C 2.796875 -3.921875 3.09375 -4.1875 3.515625 -4.1875 C 3.78125 -4.1875 3.921875 -4.0625 3.9375 -4.0625 C 3.640625 -4.015625 3.421875 -3.78125 3.421875 -3.515625 C 3.421875 -3.359375 3.53125 -3.171875 3.796875 -3.171875 C 4.0625 -3.171875 4.34375 -3.40625 4.34375 -3.765625 C 4.34375 -4.109375 4.03125 -4.40625 3.515625 -4.40625 C 2.875 -4.40625 2.4375 -3.921875 2.25 -3.640625 C 2.15625 -4.09375 1.796875 -4.40625 1.328125 -4.40625 C 0.875 -4.40625 0.6875 -4.015625 0.59375 -3.84375 C 0.421875 -3.5 0.296875 -2.90625 0.296875 -2.875 C 0.296875 -2.765625 0.390625 -2.765625 0.40625 -2.765625 C 0.515625 -2.765625 0.515625 -2.78125 0.578125 -3 C 0.75 -3.703125 0.953125 -4.1875 1.3125 -4.1875 C 1.46875 -4.1875 1.609375 -4.109375 1.609375 -3.734375 C 1.609375 -3.515625 1.578125 -3.40625 1.453125 -2.890625 Z M 0.875 -0.59375 "/>
</symbol>
</g>
<clipPath id="clip1">
  <path d="M 0 0 L 170.675781 0 L 170.675781 156.703125 L 0 156.703125 Z M 0 0 "/>
</clipPath>
<clipPath id="clip2">
  <path d="M 71 0 L 72 0 L 72 156.703125 L 71 156.703125 Z M 71 0 "/>
</clipPath>
<clipPath id="clip3">
  <path d="M 0 85 L 170.675781 85 L 170.675781 86 L 0 86 Z M 0 85 "/>
</clipPath>
<clipPath id="clip4">
  <path d="M 0 3 L 154 3 L 154 156.703125 L 0 156.703125 Z M 0 3 "/>
</clipPath>
</defs>
<g id="surface1">
<g clip-path="url(#clip1)" clip-rule="nonzero">
<path style=" stroke:none;fill-rule:nonzero;fill:rgb(100%,89.411926%,78.431702%);fill-opacity:1;" d="M 0 156.703125 L 170.675781 156.703125 L 170.675781 0 L 0 0 Z M 0 156.703125 "/>
</g>
<g clip-path="url(#clip2)" clip-rule="nonzero">
<path style="fill:none;stroke-width:0.3985;stroke-linecap:butt;stroke-linejoin:miter;stroke:rgb(100%,100%,100%);stroke-opacity:1;stroke-miterlimit:10;" d="M 0.000625 85.039562 L 0.000625 -70.866688 " transform="matrix(1,0,0,-1,71.265,85.438)"/>
</g>
<g clip-path="url(#clip3)" clip-rule="nonzero">
<path style="fill:none;stroke-width:0.3985;stroke-linecap:butt;stroke-linejoin:miter;stroke:rgb(100%,100%,100%);stroke-opacity:1;stroke-miterlimit:10;" d="M 99.211562 0.0005 L -70.866563 0.0005 " transform="matrix(1,0,0,-1,71.265,85.438)"/>
</g>
<path style=" stroke:none;fill-rule:nonzero;fill:rgb(100%,0%,0%);fill-opacity:1;" d="M 75.25 85.4375 C 75.25 83.238281 73.464844 81.453125 71.265625 81.453125 C 69.0625 81.453125 67.28125 83.238281 67.28125 85.4375 C 67.28125 87.640625 69.0625 89.421875 71.265625 89.421875 C 73.464844 89.421875 75.25 87.640625 75.25 85.4375 Z M 75.25 85.4375 "/>
<g clip-path="url(#clip4)" clip-rule="nonzero">
<path style="fill:none;stroke-width:0.79701;stroke-linecap:butt;stroke-linejoin:miter;stroke:rgb(100%,0%,0%);stroke-opacity:1;stroke-miterlimit:10;" d="M 70.867812 0.0005 C 70.867812 39.141125 39.137344 70.867687 0.000625 70.867687 C -39.14 70.867687 -70.866563 39.141125 -70.866563 0.0005 C -70.866563 -39.140125 -39.14 -70.866688 0.000625 -70.866688 C 39.137344 -70.866688 70.867812 -39.140125 70.867812 0.0005 Z M 70.867812 0.0005 " transform="matrix(1,0,0,-1,71.265,85.438)"/>
</g>
<path style="fill:none;stroke-width:0.79701;stroke-linecap:butt;stroke-linejoin:miter;stroke:rgb(0%,0%,0%);stroke-opacity:1;stroke-miterlimit:10;" d="M 0.000625 0.0005 L 84.332656 0.0005 " transform="matrix(1,0,0,-1,71.265,85.438)"/>
<path style="fill:none;stroke-width:0.6376;stroke-linecap:round;stroke-linejoin:round;stroke:rgb(0%,0%,0%);stroke-opacity:1;stroke-miterlimit:10;" d="M -1.555891 2.070812 C -1.423079 1.293469 -0.00120375 0.129406 0.389421 0.0005 C -0.00120375 -0.128406 -1.423079 -1.296375 -1.555891 -2.073719 " transform="matrix(1,0,0,-1,155.59886,85.438)"/>
<g style="fill:rgb(0%,0%,0%);fill-opacity:1;">
  <use xlink:href="#glyph0-1" x="147.344" y="93.447"/>
</g>
<path style="fill:none;stroke-width:0.79701;stroke-linecap:butt;stroke-linejoin:miter;stroke:rgb(0%,0%,0%);stroke-opacity:1;stroke-miterlimit:10;" d="M 0.000625 0.0005 L 0.000625 84.332531 " transform="matrix(1,0,0,-1,71.265,85.438)"/>
<path style="fill:none;stroke-width:0.6376;stroke-linecap:round;stroke-linejoin:round;stroke:rgb(0%,0%,0%);stroke-opacity:1;stroke-miterlimit:10;" d="M -1.556016 2.073594 C -1.423204 1.29625 -0.00132875 0.128281 0.389296 -0.000625 C -0.00132875 -0.129531 -1.423204 -1.293594 -1.556016 -2.070937 " transform="matrix(0,-1,-1,0,71.265,1.10414)"/>
<g style="fill:rgb(0%,0%,0%);fill-opacity:1;">
  <use xlink:href="#glyph0-2" x="74.984" y="8.407"/>
</g>
<path style="fill:none;stroke-width:0.79701;stroke-linecap:butt;stroke-linejoin:miter;stroke:rgb(100%,0%,0%);stroke-opacity:1;stroke-dasharray:0.79701,1.99255;stroke-miterlimit:10;" d="M 4.238906 2.961437 L 65.918594 14.047375 " transform="matrix(1,0,0,-1,71.265,85.438)"/>
<path style="fill:none;stroke-width:0.6376;stroke-linecap:round;stroke-linejoin:round;stroke:rgb(100%,0%,0%);stroke-opacity:1;stroke-miterlimit:10;" d="M -1.552825 2.072027 C -1.426536 1.295216 -0.000752463 0.130028 0.388737 0.000481091 C 0.000462977 -0.128176 -1.424144 -1.296971 -1.555367 -2.071153 " transform="matrix(-0.98419,0.17691,0.17691,0.98419,75.5036,82.47763)"/>
<path style="fill:none;stroke-width:0.6376;stroke-linecap:round;stroke-linejoin:round;stroke:rgb(100%,0%,0%);stroke-opacity:1;stroke-miterlimit:10;" d="M -1.553001 2.07139 C -1.426711 1.294579 -0.000927845 0.129391 0.388562 -0.000155446 C 0.000287595 -0.128812 -1.423628 -1.293763 -1.555542 -2.071789 " transform="matrix(0.98419,-0.17691,-0.17691,-0.98419,137.18396,71.3889)"/>
<g style="fill:rgb(100%,0%,0%);fill-opacity:1;">
  <use xlink:href="#glyph0-3" x="103.025" y="73.215"/>
  <use xlink:href="#glyph0-4" x="108.210533" y="73.215"/>
</g>
</g>
</svg>

<svg xmlns="http://www.w3.org/2000/svg" xmlns:xlink="http://www.w3.org/1999/xlink" width="227.568" height="208.937" viewBox="0 0 170.676 156.703"><defs><clipPath id="a"><path d="M0 0h170.676v156.703H0Zm0 0"/></clipPath><clipPath id="b"><path d="M71 0h1v156.703h-1Zm0 0"/></clipPath><clipPath id="c"><path d="M0 85h170.676v1H0Zm0 0"/></clipPath><clipPath id="d"><path d="M0 3h154v153.703H0Zm0 0"/></clipPath><symbol id="e" overflow="visible"><path d="M4.844-3.797c.047-.14.047-.156.047-.234 0-.172-.141-.266-.297-.266a.46.46 0 0 0-.344.203c-.016.063-.11.36-.14.547-.079.25-.141.531-.204.797L3.453-.953c-.031.14-.469.844-1.125.844-.5 0-.61-.438-.61-.813 0-.453.173-1.078.5-1.953.157-.406.204-.516.204-.719 0-.437-.313-.812-.813-.812-.953 0-1.312 1.453-1.312 1.531 0 .11.094.11.11.11.109 0 .109-.032.156-.188.28-.938.671-1.235 1.015-1.235.078 0 .25 0 .25.313 0 .25-.11.516-.172.703-.406 1.063-.578 1.625-.578 2.094 0 .89.625 1.187 1.219 1.187.39 0 .719-.171 1-.453-.125.516-.25 1.016-.64 1.547-.266.328-.641.625-1.094.625-.141 0-.594-.031-.766-.422.156 0 .297 0 .422-.125a.5.5 0 0 0 .203-.406c0-.312-.266-.344-.36-.344C.829.531.5.687.5 1.171c0 .5.438.876 1.063.876 1.015 0 2.046-.906 2.328-2.031Zm0 0" style="stroke:none"/></symbol><symbol id="f" overflow="visible"><path d="M1.328-.828c.531-.578.828-.828 1.188-1.14 0 0 .609-.532.968-.891.954-.922 1.172-1.407 1.172-1.453 0-.094-.093-.094-.11-.094-.077 0-.093.015-.155.11-.297.484-.5.64-.735.64-.25 0-.36-.156-.515-.328-.188-.22-.36-.422-.688-.422-.75 0-1.203.922-1.203 1.14 0 .047.031.11.11.11.093 0 .109-.047.14-.11.188-.468.766-.468.844-.468.203 0 .39.062.625.14.406.156.515.156.765.156-.359.422-1.187 1.141-1.375 1.297l-.906.844C.781-.625.422-.062.422.016c0 .093.11.093.125.093C.625.11.64.094.703-.016c.235-.359.531-.625.86-.625.218 0 .328.094.578.375.156.22.343.375.625.375 1 0 1.578-1.265 1.578-1.53 0-.048-.047-.11-.125-.11-.094 0-.11.062-.14.14-.235.641-.876.829-1.204.829-.187 0-.375-.063-.578-.125-.344-.125-.5-.172-.703-.172-.016 0-.172 0-.266.03m0 0" style="stroke:none"/></symbol><symbol id="g" overflow="visible"><path d="M5.14-6.812s0-.11-.124-.11c-.157 0-1.094.094-1.266.11-.078.015-.14.062-.14.187s.093.125.234.125c.484 0 .5.063.5.172l-.032.203-.593 2.36c-.188-.376-.469-.641-.922-.641-1.156 0-2.39 1.468-2.39 2.922C.406-.547.952.109 1.718.109c.203 0 .703-.046 1.297-.75a.91.91 0 0 0 .906.75c.36 0 .578-.234.75-.546a6.5 6.5 0 0 0 .297-.985c0-.11-.094-.11-.125-.11-.094 0-.11.048-.14.188-.173.64-.345 1.235-.75 1.235-.282 0-.298-.266-.298-.453 0-.25.016-.313.047-.485ZM3.079-1.187c-.062.187-.062.203-.203.375-.437.546-.844.703-1.125.703-.5 0-.64-.547-.64-.938 0-.5.312-1.719.546-2.187.313-.578.75-.953 1.157-.953.64 0 .78.812.78.875a.6.6 0 0 1-.03.171Zm0 0" style="stroke:none"/></symbol><symbol id="h" overflow="visible"><path d="M.875-.594c-.031.156-.094.39-.094.438 0 .172.14.265.297.265a.41.41 0 0 0 .375-.28c.016-.032.344-1.391.39-1.579.079-.328.266-1.016.313-1.297.047-.125.328-.594.563-.812.078-.063.375-.328.797-.328.265 0 .406.125.422.125-.297.046-.516.28-.516.546 0 .157.11.344.375.344s.547-.234.547-.594c0-.343-.313-.64-.828-.64-.641 0-1.078.484-1.266.765-.094-.453-.453-.765-.922-.765-.453 0-.64.39-.734.562-.172.344-.297.938-.297.969 0 .11.094.11.11.11.109 0 .109-.016.171-.235.172-.703.375-1.187.735-1.187.156 0 .296.078.296.453 0 .218-.03.328-.156.843Zm0 0" style="stroke:none"/></symbol></defs><g clip-path="url(#a)"><path d="M0 156.703h170.676V0H0Zm0 0" style="stroke:none;fill-rule:nonzero;fill:#ffe4c8;fill-opacity:1"/></g><g clip-path="url(#b)"><path d="M0 85.04V-70.867" style="fill:none;stroke-width:.3985;stroke-linecap:butt;stroke-linejoin:miter;stroke:#fff;stroke-opacity:1;stroke-miterlimit:10" transform="matrix(1 0 0 -1 71.265 85.438)"/></g><g clip-path="url(#c)"><path d="M99.212 0H-70.867" style="fill:none;stroke-width:.3985;stroke-linecap:butt;stroke-linejoin:miter;stroke:#fff;stroke-opacity:1;stroke-miterlimit:10" transform="matrix(1 0 0 -1 71.265 85.438)"/></g><path d="M75.25 85.438a3.984 3.984 0 1 0-7.969 0 3.98 3.98 0 0 0 3.985 3.984c2.199 0 3.984-1.781 3.984-3.984m0 0" style="stroke:none;fill-rule:nonzero;fill:red;fill-opacity:1"/><g clip-path="url(#d)"><path d="M70.868 0c0 39.141-31.73 70.868-70.867 70.868C-39.14 70.868-70.867 39.14-70.867 0S-39.14-70.867.001-70.867c39.136 0 70.867 31.727 70.867 70.868Zm0 0" style="fill:none;stroke-width:.79701;stroke-linecap:butt;stroke-linejoin:miter;stroke:red;stroke-opacity:1;stroke-miterlimit:10" transform="matrix(1 0 0 -1 71.265 85.438)"/></g><path d="M0 0h84.333" style="fill:none;stroke-width:.79701;stroke-linecap:butt;stroke-linejoin:miter;stroke:#000;stroke-opacity:1;stroke-miterlimit:10" transform="matrix(1 0 0 -1 71.265 85.438)"/><path d="M-1.556 2.07C-1.423 1.294 0 .13.39 0 0-.127-1.423-1.295-1.556-2.073" style="fill:none;stroke-width:.6376;stroke-linecap:round;stroke-linejoin:round;stroke:#000;stroke-opacity:1;stroke-miterlimit:10" transform="matrix(1 0 0 -1 155.599 85.438)"/><use xlink:href="#e" x="147.344" y="93.447" style="fill:#000;fill-opacity:1"/><path d="M0 0v84.333" style="fill:none;stroke-width:.79701;stroke-linecap:butt;stroke-linejoin:miter;stroke:#000;stroke-opacity:1;stroke-miterlimit:10" transform="matrix(1 0 0 -1 71.265 85.438)"/><path d="M-1.556 2.074C-1.423 1.296-.001.128.389-.001 0-.13-1.423-1.294-1.556-2.07" style="fill:none;stroke-width:.6376;stroke-linecap:round;stroke-linejoin:round;stroke:#000;stroke-opacity:1;stroke-miterlimit:10" transform="matrix(0 -1 -1 0 71.265 1.104)"/><use xlink:href="#f" x="74.984" y="8.407" style="fill:#000;fill-opacity:1"/><path d="m4.239 2.961 61.68 11.086" style="fill:none;stroke-width:.79701;stroke-linecap:butt;stroke-linejoin:miter;stroke:red;stroke-opacity:1;stroke-dasharray:.79701,1.99255;stroke-miterlimit:10" transform="matrix(1 0 0 -1 71.265 85.438)"/><path d="M-1.553 2.072C-1.427 1.295 0 .13.39 0 0-.128-1.424-1.297-1.555-2.07" style="fill:none;stroke-width:.6376;stroke-linecap:round;stroke-linejoin:round;stroke:red;stroke-opacity:1;stroke-miterlimit:10" transform="matrix(-.98419 .17691 .17691 .98419 75.504 82.478)"/><path d="M-1.553 2.071C-1.427 1.295-.001.13.389 0 0-.13-1.424-1.294-1.556-2.072" style="fill:none;stroke-width:.6376;stroke-linecap:round;stroke-linejoin:round;stroke:red;stroke-opacity:1;stroke-miterlimit:10" transform="scale(.99996 -.99996)rotate(10.19 468.944 733.633)"/><g style="fill:red;fill-opacity:1"><use xlink:href="#g" x="103.025" y="73.215"/><use xlink:href="#h" x="108.211" y="73.215"/></g></svg>
